components/Common/Svg/svgs/mediumRoundWhite.svg

<svg
  width="48"
  height="48"
  viewBox="0 0 48 48"
  fill="none"
  xmlns="http://www.w3.org/2000/svg"
>
  <path
    d="M31.5633 18.5578L33 17.1773V16.875H28.0242L24.4781 25.7438L20.4445 16.875H15.2273V17.1773L16.9055 19.207C17.0695 19.357 17.1539 19.5773 17.1328 19.7977V27.7734C17.1844 28.0617 17.093 28.3547 16.8914 28.5633L15 30.8672V31.1648H20.3578V30.8625L18.4688 28.5656C18.3675 28.4629 18.2914 28.3381 18.2463 28.2011C18.2012 28.0641 18.1883 27.9186 18.2086 27.7758V20.8758L22.9125 31.1695H23.4586L27.5039 20.8758V29.0766C27.5039 29.2922 27.5039 29.3367 27.3633 29.4797L25.9078 30.893V31.1953H32.9672V30.893L31.5633 29.5125C31.4414 29.4188 31.3781 29.2617 31.4039 29.1094V18.9609C31.3918 18.8856 31.4002 18.8084 31.4282 18.7375C31.4563 18.6665 31.5029 18.6045 31.5633 18.5578Z"
    fill="#171717"
  ></path>
  <circle
    opacity="0.3"
    cx="24"
    cy="24"
    r="23.5"
    stroke="#171717"
  ></circle>
</svg>

<svg width="48" height="48" viewBox="0 0 48 48" fill="none" xmlns="http://www.w3.org/2000/svg"><path d="M31.563 18.558 33 17.178v-.303h-4.976l-3.546 8.869-4.034-8.869h-5.217v.302l1.678 2.03c.165.15.249.37.228.59v7.976a.906.906 0 0 1-.242.79L15 30.867v.298h5.358v-.302l-1.89-2.297a.936.936 0 0 1-.26-.79v-6.9l4.705 10.293h.546l4.045-10.293v8.2c0 .216 0 .26-.14.404l-1.456 1.413v.302h7.06v-.302l-1.405-1.38a.424.424 0 0 1-.16-.404V18.961a.425.425 0 0 1 .16-.403Z" fill="#171717"/><circle opacity=".3" cx="24" cy="24" r="23.5" stroke="#171717"/></svg>
